X: 02091
T: NICE & EASY!
C: Bob McQuillen Mar'76
B: Bob's Note Book 1&2 #91
%R: jig
Z: 2019 John Chambers <jc:trillian.mit.edu>
M: 6/8
L: 1/8
K: D
fg \
| aff gab | afd dcd | ecA ABc | dcd efg |\
| aff gab | afd dcd | efg ABc | d4 :|
|: cd \
| eAA efg | fdd dcd | eAA efg | fdf e2f/g/ |\
| aff gab | afd dcd | eAA gfe | d4 :|
%%begintext align
%% For Dudley Laufman -
%% Friend and Fellow Sufferer
%% for many years.
%%endtext

%%sep 1 1 500

%%sep 1 1 500

